X:83
%%vocalfont Baskerville10Pro 11
%%pagewidth 7.5in
%%score
T:The Lamentation of a Sinner
M:6/8
L:1/8
K:D
V:1 clef-treble
V:2 clef-bass octave=-1
V:1
(D2E)F2G|A2BA3&D6|(B>A)G (GAB)&D3D3|A2FF3&D3A,3|(C2D)E2F&A,6|
w:Sweet* England's* prize is gone! Well-*a-day,** well-a-day; Which* makes her
V:2
[DFA]6|[F,D]6|[G,D]3[B,G]3|[DF]3D3|[AE]6|
V:1
G2AB3&D3D3|[DA]2F (DE[CF])|([CE]3D3)||d3B2c&D6|d2dB2d&D6|(B>A)G ([DF]E)D&D3x3|
w:sigh and groan E-ver-more** still.* He did her fame advance,* In Ireland,** Spain* and
V:2
[B,D]3[G,G]3|F3-FGA&A,3-A,2A,|([DG]3[DF]3)|[B,F]6|[B,F]6|[G,G]3[DA]3|
V:1
E6&DCB,C3|[EAe]3[EAc]de|[EG]AB ([B,E]2G)|[A,DF]ED EC2|D6||
w:France, And by* a sad* mis-chance,* Is** from us ta'en.
V:2
[A,A]6|[CA]3[A,A]3|[EB]3G,3|A,3[A,G]3|F6&D3D,3||

